!!!OTL: "Deutscher dantz."
!!!ARE: Europa, Mitteleuropa, Deutschland
!!!SCT: A0316
!!!TXL: @@GMH
!!!YEM: Copyright 1995, estate of Helmut Schaffrath.
**kern	**text
*M4/2	*
*met(c|)	*
*k[f#c#g#]	*
*A:	*
!LO:TX:a:t=A dur.	!
{(<4a	Die
4b/)	.
=1	=1
2cc#	Fiſch
2b	im
2cc#	Waſ-
2dd	-ſer
=2	=2
1ee	woh-
2cc#}	-nen,
{2ee	das
=3	=3
2dd	gwildt
2cc#	wol
2b	in
2ee	dem
=4	=4
1cc#	wald:}
2r}	.
{(<4a	So
4b/)	.
=5	=5
2cc#	hal-
2b	-ten
2cc#	ſie
2dd	ʒu-
=6	=6
1ee	-ſam-
2cc#}	-men
{2ee	die
=7	=7
2dd	men-
2cc#	-ſchen
2b	jung
2ee	vnd
=8	=8
1cc#	alt;}
2r}	.
{2cc#	Da-
=9	=9
2cc#	-mit
2b/	ſie
2a	thun
2gn	ſich
=10	=10
(2f#	meh-
4e	.
4d)	.
2e}	-ren
{(4b/	gar
4a)	.
=11	=11
2g#X	vil
(4f#	end
4e)	.
(4f#	ma-
4e)	.
(4c#	-nig
4d#)	.
=12	=12
1e	falt,
2r}	.
{(4f#	da-
4g#)	.
=13	=13
2a	-mit
2a	ſie
2b/	thun
2b/	ſich
=14	=14
(2cc#	meh-
2ee)	.
(4dd	-ren
4cc#)}	.
{(4b/	gar
4a)	.
=15	=15
2b/	vil
2a	und
2a	ma-
2g#	-nig-
=16	=16
1a	-falt.
2r}	.
==	==
!!!GTL: Tanz- und Kranzlieder
!!!AGN: Romanze, Ballade, Lied
!! Hainhofer, Lautenbuch II. 1603. Bl. 9b Hs. in Wolfenbuettel.
!!!ONB: ESAC (Essen Associative Code) Database: ALTDEU
!!!AMT: simple quadruple
!!!AIN: vox
!!!EED: Helmut Schaffrath
!!!EEV: 1.0
!!!RDF**kern: < = below
!!!URL-scan: https://rosdok.uni-rostock.de/mcrviewer/recordIdentifier/rosdok_ppn738218359/iview2/phys_0469.iview2?x=-495.6391625615763&y=556.8733990082983&scale=0.4629418472063854&rotation=0&layout=singlePageLayout
!!!ENC: Anna Maria Matuszewska
!!!EEV: 2024/13/03
*-	*-
